X: 1
T: Reel des Acadiens
I: RJ R-125 A reel
C: E. Arsenault
M: C|
R: reel
K: A
af |\
"A"eece AAce | fece "D"feaf | "A"eece "D"feaf |[1,3 "A"ecAc "E7"B2 :|[2,4 "A"ec"E7"Bc "A"A2 :|
|: zA |:\
"A"ABcd eeea | "D"feaf "E7"ecBc | "A"ABcd [1,3 "(F#m)"eeea | "B7"fecA "E7"B2BB :|[2,4 "(F#m)"eeaf | "E7"ecBc "A"A2 :|


